src/24/actions/transform-move-horizontal.svg

<svg xmlns="http://www.w3.org/2000/svg" width="24" height="24" viewBox="0 0 24 24">
 <defs>
  <style id="current-color-scheme" type="text/css">
   .ColorScheme-Text { color:#565656; } .ColorScheme-Highlight { color:#5294e2; }
  </style>
 </defs>
 <path style="fill:currentColor" class="ColorScheme-Text" d="M 0.54882812 2.0078125 A 0.50005 0.50005 0 0 0 0.048828125 2.5078125 L 0.048828125 10.5 A 0.50005 0.50005 0 0 0 0.54882812 11 L 9.5234375 11 A 0.50005 0.50005 0 0 0 10.023438 10.5 L 10.023438 2.5078125 A 0.50005 0.50005 0 0 0 9.5234375 2.0078125 L 0.54882812 2.0078125 z M 14.523438 2.0078125 A 0.50005 0.50005 0 0 0 14.023438 2.5078125 L 14.023438 10.5 A 0.50005 0.50005 0 0 0 14.523438 11 L 23.5 11 A 0.50005 0.50005 0 0 0 24 10.5 L 24 2.5078125 A 0.50005 0.50005 0 0 0 23.5 2.0078125 L 14.523438 2.0078125 z M 1.5390625 3.0039062 L 8.5371094 3.0039062 C 8.8132094 3.0039062 9.0371094 3.2278062 9.0371094 3.5039062 L 9.0371094 9.4980469 C 9.0371094 9.7742469 8.8132094 9.9980469 8.5371094 9.9980469 L 1.5390625 9.9980469 C 1.2629625 9.9980469 1.0390625 9.7742469 1.0390625 9.4980469 L 1.0390625 3.5039062 C 1.0390625 3.2278062 1.2629625 3.0039062 1.5390625 3.0039062 z M 15.515625 3.0039062 L 22.513672 3.0039062 C 22.789672 3.0039062 23.013672 3.2278062 23.013672 3.5039062 L 23.013672 9.4980469 C 23.013672 9.7742469 22.789672 9.9980469 22.513672 9.9980469 L 15.515625 9.9980469 C 15.238625 9.9980469 15.015625 9.7742469 15.015625 9.4980469 L 15.015625 3.5039062 C 15.015625 3.2278062 15.238625 3.0039062 15.515625 3.0039062 z M 17.023438 12 L 17.023438 14 L 5.0234375 14 L 5.0234375 15 L 17.023438 15 L 17.023438 17 L 20.023438 14.5 L 17.023438 12 z"/>
 <path style="fill:currentColor;opacity:0.3" class="ColorScheme-Text" d="M 1.0488281 3.0078125 L 1.0488281 10 L 9.0234375 10 L 9.0234375 3.0078125 L 1.0488281 3.0078125 z M 15.023438 3.0078125 L 15.023438 10 L 23 10 L 23 3.0078125 L 15.023438 3.0078125 z"/>
</svg>

<svg xmlns="http://www.w3.org/2000/svg" width="24" height="24"><defs><style id="current-color-scheme" type="text/css">.ColorScheme-Text{color:#565656}</style></defs><path class="ColorScheme-Text" d="M.549 2.008a.5.5 0 0 0-.5.5V10.5a.5.5 0 0 0 .5.5h8.974a.5.5 0 0 0 .5-.5V2.508a.5.5 0 0 0-.5-.5H.55zm13.974 0a.5.5 0 0 0-.5.5V10.5a.5.5 0 0 0 .5.5H23.5a.5.5 0 0 0 .5-.5V2.508a.5.5 0 0 0-.5-.5h-8.977zM1.54 3.004h6.998a.5.5 0 0 1 .5.5v5.994a.5.5 0 0 1-.5.5H1.54a.5.5 0 0 1-.5-.5V3.504a.5.5 0 0 1 .5-.5zm13.977 0h6.998a.5.5 0 0 1 .5.5v5.994a.5.5 0 0 1-.5.5h-6.998a.5.5 0 0 1-.5-.5V3.504a.5.5 0 0 1 .5-.5zM17.023 12v2h-12v1h12v2l3-2.5-3-2.5z" fill="currentColor"/><path class="ColorScheme-Text" d="M1.049 3.008V10h7.974V3.008H1.05zm13.974 0V10H23V3.008h-7.977z" fill="currentColor" opacity=".3"/></svg>
